X:962
T:The Tongs by the Fire
N:"Collected by F.O'Neill"
B:O'Neill's 962
Z:Transcribed by Dan G. Petersen, dangp@post6.tele.dk
M:6/8
L:1/8
K:G
D|GBd cAF|Gge dBG|cec BdB|ABG FED|
GBd cAF|Gge dBd|cec Bag|gfef g2:|
d|gdB gdB|gfa gdB|agfg eag|fdd def|
gbg faf|ege def|gdB AGA|BGG G2:|
